svgs/sharp-light/bus-simple.svg

<svg xmlns="http://www.w3.org/2000/svg" viewBox="0 0 448 512"><!--! Font Awesome Pro 6.6.0 by @fontawesome - https://fontawesome.com License - https://fontawesome.com/license (Commercial License) Copyright 2024 Fonticons, Inc. --><path d="M32 96l0-4.5c6.2-8.3 21.4-22 49.6-34.3C113.1 43.5 159.5 32 224 32c131.4 0 179.1 40.8 192 59.4l0 4.6L32 96zm0 32l384 0 0 128L32 256l0-128zM416 288l0 128-112.8 0L32 416l0-128 384 0zM224 0C155.8 0 104.8 12.1 68.8 27.9C33.3 43.4 11 63 2 79L0 82.6l0 4.2L0 432l0 16 16 0 16 0 0 48 0 16 32 0 0-16 0-48 239.2 0 80.8 0 0 48 0 16 32 0 0-16 0-48 16 0 16 0 0-16 0-345.2 0-4.2L446 79C428.8 48.3 369.6 0 224 0zM96 376a24 24 0 1 0 0-48 24 24 0 1 0 0 48zm280-24a24 24 0 1 0 -48 0 24 24 0 1 0 48 0z"/></svg>

<svg xmlns="http://www.w3.org/2000/svg" viewBox="0 0 448 512"><!--! Font Awesome Pro 6.5.2 by @fontawesome - https://fontawesome.com License - https://fontawesome.com/license (Commercial License) Copyright 2024 Fonticons, Inc. --><path d="M32 96V91.5c6.2-8.3 21.4-22 49.6-34.3C113.1 43.5 159.5 32 224 32c131.4 0 179.1 40.8 192 59.4V96H32zm0 32H416V256H32V128zM416 288V416H303.2 32V288H416zM224 0C155.8 0 104.8 12.1 68.8 27.9C33.3 43.4 11 63 2 79L0 82.6v4.2V432v16H16 32v48 16H64V496 448H303.2 384v48 16h32V496 448h16 16V432 86.8 82.6L446 79C428.8 48.3 369.6 0 224 0zM96 376a24 24 0 1 0 0-48 24 24 0 1 0 0 48zm280-24a24 24 0 1 0 -48 0 24 24 0 1 0 48 0z"/></svg>
